symbols/web/upcoming/materialsymbolsoutlined/upcoming_wght700_24px.svg

<svg xmlns="http://www.w3.org/2000/svg" height="24" width="24"><path d="M4.3 22.675q-1.325 0-2.238-.912-.912-.913-.912-2.238V15.15q0-1.325.912-2.238Q2.975 12 4.3 12H9q0 1.25.875 2.125T12 15q1.25 0 2.125-.875T15 12h4.7q1.325 0 2.238.912.912.913.912 2.238v4.375q0 1.325-.912 2.238-.913.912-2.238.912Zm0-3.15h15.4V15.15h-2.475Q16.35 16.6 15 17.375q-1.35.775-3 .775t-3-.788q-1.35-.787-2.225-2.212H4.3v4.375Zm13.675-9.075-2.2-2.2 4.35-4.35 2.225 2.2Zm-11.95 0L1.65 6.1l2.225-2.2 4.35 4.35Zm4.4-3.025v-6.15h3.15v6.15ZM4.3 19.525H19.7Z"/></svg>

<svg xmlns="http://www.w3.org/2000/svg" height="24" width="24"><path d="M17.975 10.45 15.775 8.25 20.125 3.9 22.35 6.1ZM10.425 7.425V1.275H13.575V7.425ZM6.025 10.45 1.65 6.1 3.875 3.9 8.225 8.25ZM4.3 19.525H19.7Q19.7 19.525 19.7 19.525Q19.7 19.525 19.7 19.525V15.15Q19.7 15.15 19.7 15.15Q19.7 15.15 19.7 15.15H17.225Q16.35 16.6 15 17.375Q13.65 18.15 12 18.15Q10.35 18.15 9 17.362Q7.65 16.575 6.775 15.15H4.3Q4.3 15.15 4.3 15.15Q4.3 15.15 4.3 15.15V19.525Q4.3 19.525 4.3 19.525Q4.3 19.525 4.3 19.525ZM4.3 22.675Q2.975 22.675 2.062 21.763Q1.15 20.85 1.15 19.525V15.15Q1.15 13.825 2.062 12.912Q2.975 12 4.3 12H9Q9 13.25 9.875 14.125Q10.75 15 12 15Q13.25 15 14.125 14.125Q15 13.25 15 12H19.7Q21.025 12 21.938 12.912Q22.85 13.825 22.85 15.15V19.525Q22.85 20.85 21.938 21.763Q21.025 22.675 19.7 22.675ZM4.3 19.525Q4.3 19.525 4.3 19.525Q4.3 19.525 4.3 19.525Q4.3 19.525 4.3 19.525Q4.3 19.525 4.3 19.525H6.775Q7.65 19.525 9 19.525Q10.35 19.525 12 19.525Q13.65 19.525 15 19.525Q16.35 19.525 17.225 19.525H19.7Q19.7 19.525 19.7 19.525Q19.7 19.525 19.7 19.525Q19.7 19.525 19.7 19.525Q19.7 19.525 19.7 19.525Z"/></svg>
